li/weather-cloudy-windy.svg

<svg role="img" focusable="false" aria-hidden="true" xmlns="http://www.w3.org/2000/svg" viewBox="0 0 14 14" height="1em" width="1em">
  <path d="M 1,9.443884 C 1,9.322825 1.040353,9.216898 1.1261034,9.136192 1.2118534,9.055482 1.3177806,9.015132 1.443884,9.015132 l 4.5245901,0 c 0.1210593,0 0.2168979,0.04035 0.2976041,0.12106 0.080706,0.08071 0.1160151,0.181589 0.1160151,0.307692 0,0.121059 -0.040353,0.221942 -0.1210593,0.302648 -0.080706,0.08071 -0.1765447,0.12106 -0.297604,0.12106 l -4.519546,0 c -0.1261034,0 -0.2320303,-0.04035 -0.3177806,-0.12106 C 1.0403531,9.665826 1,9.559899 1,9.443884 Z M 2.3266078,7.900378 c 0,-0.121059 0.045397,-0.221942 0.1361917,-0.302648 0.070618,-0.07566 0.1715006,-0.116015 0.297604,-0.116015 l 4.5397226,0 c 0.1160151,0 0.2118537,0.04035 0.2925599,0.116015 0.080706,0.07566 0.1160151,0.176545 0.1160151,0.297604 0,0.12106 -0.040353,0.221942 -0.1160151,0.307693 C 7.517024,8.288777 7.4161412,8.32913 7.3001261,8.32913 l -4.5397226,0 C 2.6443884,8.32913 2.5435057,8.28373 2.4577554,8.197982 2.3720054,8.112232 2.3266078,8.016394 2.3266078,7.900378 Z M 2.6393443,6.725095 c 0,0.0454 0.030265,0.07062 0.08575,0.07062 l 0.7213115,0 c 0.045397,0 0.08575,-0.02522 0.1160151,-0.07062 C 3.678436,6.452711 3.8499366,6.225725 4.087011,6.044136 4.3240855,5.862547 4.5863805,5.761665 4.8839846,5.741488 l 0.2723833,-0.03531 c 0.055486,0 0.08575,-0.03026 0.08575,-0.09079 L 5.2774269,5.353093 C 5.3329129,4.803282 5.5699868,4.34931 5.9785618,3.981088 6.392181,3.612866 6.8713739,3.431277 7.4262289,3.431277 c 0.5498101,0 1.0239591,0.181589 1.4274901,0.539722 0.403531,0.363178 0.640605,0.81715 0.711223,1.361917 l 0.03531,0.297604 c 0,0.05549 0.03026,0.08071 0.09079,0.08071 l 0.807061,0 c 0.459017,0 0.847415,0.161413 1.17024,0.484237 0.322825,0.322825 0.484237,0.711224 0.484237,1.17024 0,0.443884 -0.166456,0.827238 -0.489281,1.150063 -0.327869,0.327869 -0.716267,0.489281 -1.165196,0.489281 l -3.475409,0 c -0.06053,0 -0.090794,0.03026 -0.090794,0.08575 l 0,0.675914 c 0,0.06053 0.030265,0.09079 0.090794,0.09079 l 3.475409,0 c 0.343002,0 0.665826,-0.06557 0.978563,-0.196721 C 11.789402,9.529636 12.051697,9.353092 12.273639,9.13115 12.495581,8.909208 12.672126,8.641868 12.803274,8.334176 12.934426,8.026482 13,7.703657 13,7.3657 13,6.911728 12.889029,6.493064 12.667087,6.10971 12.445145,5.726356 12.142497,5.423708 11.759142,5.201766 11.375788,4.979824 10.952081,4.868853 10.498108,4.868853 l -0.156368,0 C 10.175284,4.192938 9.822194,3.638083 9.282472,3.204288 8.737705,2.775536 8.12232,2.558638 7.4262295,2.558638 6.7099622,2.558638 6.0794451,2.78058 5.5296343,3.229508 4.9798235,3.673392 4.6317781,4.24338 4.480454,4.93947 4.0466583,5.03531 3.6633039,5.242119 3.3354351,5.549811 3.0075662,5.857503 2.7805801,6.230769 2.6494325,6.669609 l 0,0.01009 c -0.00504,0.02018 -0.010088,0.03026 -0.010088,0.0454 z m 0.5800756,4.277427 c 0,-0.121059 0.045397,-0.221942 0.1311476,-0.302648 0.075662,-0.08071 0.1765447,-0.116015 0.297604,-0.116015 l 4.5346785,0 c 0.121059,0 0.226986,0.04035 0.307692,0.121059 0.08575,0.08071 0.126104,0.181589 0.126104,0.302648 0,0.12106 -0.04035,0.221942 -0.126104,0.307693 -0.08575,0.08575 -0.186633,0.126103 -0.307692,0.126103 l -4.5346785,0 c -0.1160151,0 -0.2168979,-0.04035 -0.3026482,-0.126103 -0.08575,-0.09079 -0.1261034,-0.191678 -0.1261034,-0.312737 z"/>
</svg>

<svg aria-hidden="true" xmlns="http://www.w3.org/2000/svg" viewBox="0 0 14 14" height="1em" width="1em">
  <path d="M1 9.444c0-.121.04-.227.126-.308a.446.446 0 0 1 .318-.12h4.524a.4.4 0 0 1 .298.12.41.41 0 0 1 .116.308.41.41 0 0 1-.419.424h-4.52a.446.446 0 0 1-.317-.121A.404.404 0 0 1 1 9.444ZM2.327 7.9c0-.12.045-.222.136-.302a.391.391 0 0 1 .297-.116H7.3c.116 0 .212.04.293.116.08.075.116.176.116.297s-.04.222-.116.308a.375.375 0 0 1-.293.126H2.76a.417.417 0 0 1-.302-.131.406.406 0 0 1-.131-.298Zm.312-1.175c0 .045.03.07.086.07h.721c.046 0 .086-.025.116-.07.116-.272.288-.5.525-.68.237-.182.5-.283.797-.304l.272-.035c.056 0 .086-.03.086-.09l.035-.263c.056-.55.293-1.004.702-1.372a2.1 2.1 0 0 1 1.447-.55c.55 0 1.024.182 1.428.54.403.363.64.817.71 1.362l.036.298c0 .055.03.08.091.08h.807c.46 0 .848.162 1.17.484.323.323.485.712.485 1.17 0 .445-.167.828-.49 1.15a1.59 1.59 0 0 1-1.165.49H7.023c-.06 0-.091.03-.091.086v.676c0 .06.03.09.09.09h3.476c.343 0 .666-.065.979-.196.312-.131.575-.308.797-.53a2.525 2.525 0 0 0 .393-3.021 2.481 2.481 0 0 0-2.169-1.24l-.156-.001a3 3 0 0 0-1.06-1.665 2.917 2.917 0 0 0-1.856-.645 2.91 2.91 0 0 0-1.896.67 2.933 2.933 0 0 0-1.05 1.71 2.415 2.415 0 0 0-1.145.61 2.477 2.477 0 0 0-.686 1.12v.01c-.005.02-.01.031-.01.046zm.58 4.278a.4.4 0 0 1 .132-.303.388.388 0 0 1 .297-.116h4.535c.12 0 .227.04.308.12a.404.404 0 0 1 .126.304c0 .12-.04.222-.126.307a.415.415 0 0 1-.308.126H3.648a.434.434 0 0 1-.429-.439z"/>
</svg>
